X:1
T:Title
%%score { ( 1 4 5 ) | ( 2 3 ) }
L:1/8
Q:1/4=100
M:6/8
K:G
V:1 treble nm="Grand Piano"
V:4 treble 
V:5 treble 
V:2 treble 
V:3 treble 
V:1
 d^cd B2 G | [GB]2 [FA] [FA]3 | cB[Fc] [FA]2 [DF] | [DG]2 A B3 | d^cd B2 G | A2 B c3 | %6
w: Willard~P.~Morris * * * *||||||
 EG[Ec] B2 G | G2 F [B,DG]3 | .[CE]6 | G3 z3 | [G,DG]2 [DA] [DB]2 [DGB] | [DFA]6 | %12
w: ||||||
 [DGB]2 [DGB] [GB][Fc][=Fd] | [Ec]3 .[EA]3 | B2 A G2 F | [B,DG]6 |] %16
w: ||||
V:2
 .[G,G]3 z3 | [D,D]2 [D,D] [D,D]3 | .A,3 z3 | [B,,G,]2 [D,F,D][K:treble] [G,D]3 | %4
 [G,G]-[G,_B,G][G,=B,G] [G,DG]2 [G,B,] | [G,CF]2 [G,D=F][K:bass] [G,CE]3 | %6
 CE[C,G,] [D,G,D]2 [D,B,D] | [D,CD]2 [D,CD] G,,3 | C,2 C, z DC, | G,,2 G,, .G,,3 | %10
 B,,2 [D,F,] G,2 G,, | D,6 | G,2 G, z A,[G,B,] | [C,C]3 .[C,C]3 | %14
 [D,G,D]2 [D,CD] [D,B,D]2 [D,A,D] | G,,6 |] %16
V:3
 B,_B,[G,=B,G] [G,DG]2 [G,B,] | x6 | D,-[D,^G,][D,A,] [D,D]2 [C,A,] | x3[K:treble] x3 | .B,3 z3 | %5
 x3[K:bass] x3 | .[C,G,]3 z3 | x6 | z3 .C,3 | x6 | x6 | x6 | z3 .G,3 | x6 | x6 | x6 |] %16
V:4
 x6 | x6 | .F3 z3 | x6 | x6 | x6 | x6 | x6 | G,2 G, z F[G,EG] | [B,D]2 [B,D] .[B,D]3 | x6 | x6 | %12
 x6 | x6 | x6 | x6 |] %16
V:5
 x6 | x6 | x6 | x6 | x6 | x6 | x6 | x6 | z3 .G,3 | x6 | x6 | x6 | x6 | x6 | x6 | x6 |] %16

